X:20
T: WIE D WOLKEN AM HIMMEL
N: E0636
O: Europa, Mitteleuropa, Oesterreich, Steiermark
R: Liebes - Lied
M: 3/4
L: 1/8
K: E
E2 | GB,E2G2 | BcB2
B2 | GBe2G2 | B4
B2 | A2DFBA | GBE2
G2 | FDB,AGF | E4

